favicon.svg

<?xml version="1.0" encoding="UTF-8" standalone="no"?>
<svg
   xmlns:dc="http://purl.org/dc/elements/1.1/"
   xmlns:cc="http://creativecommons.org/ns#"
   xmlns:rdf="http://www.w3.org/1999/02/22-rdf-syntax-ns#"
   xmlns:svg="http://www.w3.org/2000/svg"
   xmlns="http://www.w3.org/2000/svg"
   xmlns:sodipodi="http://sodipodi.sourceforge.net/DTD/sodipodi-0.dtd"
   xmlns:inkscape="http://www.inkscape.org/namespaces/inkscape"
   width="48"
   height="48"
   viewBox="0 0 12.7 12.7"
   version="1.1"
   id="svg8"
   inkscape:version="1.0.1 (3bc2e813f5, 2020-09-07)"
   sodipodi:docname="drawing.svg">

   <style>
      path {
         fill: #353942;
      }

      @media (prefers-color-scheme: dark) {
         path {
            fill: #e7e8eb;
         } 
      }
   </style>

  <defs
     id="defs2" />
  <sodipodi:namedview
     id="base"
     pagecolor="#ffffff"
     bordercolor="#666666"
     borderopacity="1.0"
     inkscape:pageopacity="0.0"
     inkscape:pageshadow="2"
     inkscape:zoom="7.9195959"
     inkscape:cx="33.088443"
     inkscape:cy="40.126406"
     inkscape:document-units="pc"
     inkscape:current-layer="text835"
     inkscape:document-rotation="0"
     showgrid="false"
     units="px"
     inkscape:window-width="1267"
     inkscape:window-height="1198"
     inkscape:window-x="800"
     inkscape:window-y="126"
     inkscape:window-maximized="0" />
  <metadata
     id="metadata5">
    <rdf:RDF>
      <cc:Work
         rdf:about="">
        <dc:format>image/svg+xml</dc:format>
        <dc:type
           rdf:resource="http://purl.org/dc/dcmitype/StillImage" />
        <dc:title></dc:title>
      </cc:Work>
    </rdf:RDF>
  </metadata>
  <g
     inkscape:label="Layer 1"
     inkscape:groupmode="layer"
     id="layer1">
    <g
       aria-label="K"
       id="text835"
       style="font-style:normal;font-variant:normal;font-weight:bold;font-stretch:normal;font-size:15.1784px;line-height:1.25;font-family:'Open Sans';-inkscape-font-specification:'Open Sans, Bold';font-variant-ligatures:normal;font-variant-caps:normal;font-variant-numeric:normal;font-variant-east-asian:normal;fill-opacity:1;stroke:none;stroke-width:0.379461">
      <path
         d="M 10.707861,11.767681 H 8.0990735 L 5.2605348,7.202303 4.2896508,7.8989678 V 11.767681 H 1.9921391 V 0.93231937 H 4.2896508 V 5.8904979 L 5.1938328,4.6157495 8.1287188,0.93231937 H 10.678216 L 6.8984383,5.7274487 Z"
         style="font-style:normal;font-variant:normal;font-weight:bold;font-stretch:normal;font-size:15.1784px;font-family:'Open Sans';-inkscape-font-specification:'Open Sans, Bold';font-variant-ligatures:normal;font-variant-caps:normal;font-variant-numeric:normal;font-variant-east-asian:normal;fill-opacity:1;stroke-width:0.379461"
         id="path847" />
    </g>
  </g>
</svg>

<?xml version="1.0" encoding="UTF-8"?>
<svg width="48" height="48" version="1.1" viewBox="0 0 12.7 12.7" xmlns="http://www.w3.org/2000/svg" xmlns:cc="http://creativecommons.org/ns#" xmlns:dc="http://purl.org/dc/elements/1.1/" xmlns:rdf="http://www.w3.org/1999/02/22-rdf-syntax-ns#">
 <style>path {
         fill: #353942;
      }

      @media (prefers-color-scheme: dark) {
         path {
            fill: #e7e8eb;
         } 
      }</style>
 <metadata>
  <rdf:RDF>
   <cc:Work rdf:about="">
    <dc:format>image/svg+xml</dc:format>
    <dc:type rdf:resource="http://purl.org/dc/dcmitype/StillImage"/>
    <dc:title/>
   </cc:Work>
  </rdf:RDF>
 </metadata>
 <g style="font-variant-caps:normal;font-variant-east-asian:normal;font-variant-ligatures:normal;font-variant-numeric:normal" aria-label="K">
  <path d="m10.708 11.768h-2.6088l-2.8385-4.5654-0.97088 0.69666v3.8687h-2.2975v-10.835h2.2975v4.9582l0.90418-1.2747 2.9349-3.6834h2.5495l-3.7798 4.7951z" stroke-width=".37946" style="font-variant-caps:normal;font-variant-east-asian:normal;font-variant-ligatures:normal;font-variant-numeric:normal"/>
 </g>
</svg>
